festivallovers/public/icons/socialmedia_snapchat.svg

<?xml version="1.0" encoding="UTF-8" standalone="no"?>
<svg width="26px" height="25px" viewBox="0 0 26 25" version="1.1" xmlns="http://www.w3.org/2000/svg" xmlns:xlink="http://www.w3.org/1999/xlink">
    <!-- Generator: Sketch 39.1 (31720) - http://www.bohemiancoding.com/sketch -->
    <title>socialmedia_snapchat</title>
    <desc>Created with Sketch.</desc>
    <defs></defs>
    <g id="Icons" stroke="none" stroke-width="1" fill="none" fill-rule="evenodd">
        <g id="socialmedia_snapchat" transform="translate(-11.000000, -11.000000)" stroke="#000000" stroke-width="0.5" fill="#050505">
            <g transform="translate(12.000000, 12.000000)" id="Shape">
                <path d="M11.9724691,1.31636674 C15.189032,1.31744136 17.8683838,3.99530917 17.8722729,7.21965032 C17.873194,7.97485714 17.8964776,8.67029424 17.9391045,9.31092537 C17.9654072,9.70618337 18.2941407,9.99909595 18.6711301,9.99909595 C18.7266525,9.99909595 18.7831983,9.99275053 18.84,9.97944563 L19.8476418,9.74323241 C19.8905245,9.73315139 19.9335608,9.72834115 19.9760853,9.72834115 C20.232,9.72834115 20.4676503,9.90319829 20.5251173,10.1621834 C20.6063284,10.5281706 20.4012793,10.8979446 20.0466525,11.0222942 L18.5171002,11.6397441 C18.130951,11.7956162 17.923548,12.2158977 18.03229,12.6179104 C19.2594115,17.1545757 22.6869083,16.6827633 22.6869083,17.2738081 C22.6869083,18.0160171 20.1034542,18.1208188 19.8700554,18.3542687 C19.6366567,18.5877186 19.8599232,19.7206311 19.3384222,19.9399574 C19.2401194,19.9813049 19.1004691,19.9956844 18.9301151,19.9956844 C18.5373134,19.9956844 17.9817825,19.9190277 17.3962644,19.9190277 C16.8883753,19.9190277 16.357919,19.9766994 15.8915821,20.1921365 C14.6544307,20.7636333 13.4616972,21.8310959 11.983113,21.8310959 C10.5045288,21.8310959 9.31179531,20.7636333 8.07464392,20.1921365 C7.60820469,19.9766482 7.07790192,19.9190277 6.56996162,19.9190277 C5.98449467,19.9190277 5.42886141,19.9956844 5.03611087,19.9956844 C4.86585928,19.9956844 4.72605544,19.9812537 4.62780384,19.9399574 C4.10630277,19.7206311 4.3295693,18.5877186 4.09617058,18.3542687 C3.86277186,18.1208188 1.2793177,18.0159659 1.2793177,17.2737569 C1.2793177,16.682661 4.7068145,17.1544733 5.93393603,12.6178593 C6.04267804,12.2158977 5.83527505,11.7956162 5.44907463,11.639693 L3.91952239,11.0222431 C3.56484435,10.8978934 3.35979531,10.5281194 3.44105757,10.1621322 C3.49852452,9.90309595 3.73417484,9.72823881 3.99008955,9.72828998 C4.0325629,9.72828998 4.07565032,9.73310021 4.11853305,9.74318124 L5.12617484,9.97939446 C5.18297655,9.99269936 5.23952239,9.99904478 5.29504478,9.99904478 C5.67198294,9.99904478 6.00076759,9.70608102 6.02707036,9.3108742 C6.06969723,8.67024307 6.09303198,7.97480597 6.09395309,7.21959915 C6.09784222,3.99530917 8.75585501,1.31749254 11.9724691,1.31636674 L11.9724691,1.31636674 Z M11.9728785,0.0370490405 L11.9724179,0.0370490405 L11.9719574,0.0370490405 C11.011855,0.0373560768 10.0765714,0.230277186 9.19220469,0.610490405 C8.34330064,0.975402985 7.57929211,1.49572708 6.92141578,2.15703198 C6.26440938,2.81746695 5.74736034,3.58418763 5.38464819,4.43590618 C5.00750533,5.32155224 4.81571002,6.25760341 4.81453305,7.21806397 C4.81397015,7.68962047 4.80419616,8.147258 4.78536461,8.58550107 L4.41047335,8.49758635 C4.27292111,8.46534755 4.13147974,8.44897228 3.9901919,8.44892111 C3.5821919,8.44886994 3.17971855,8.58678038 2.85692111,8.83721962 C2.52015352,9.09850746 2.28399147,9.47058422 2.19203412,9.88492964 C1.97316844,10.8711812 2.5177484,11.8668486 3.46147548,12.2169723 L4.58405117,12.6701066 C3.84071642,14.951693 2.47005544,15.3889126 1.5470533,15.6834115 C1.30214072,15.7615522 1.09059275,15.829049 0.889176972,15.9289893 C0.0866353945,16.3273177 0,17.0021322 0,17.2737569 C0,17.7940299 0.24624307,18.2688102 0.693441365,18.6105928 C0.916093817,18.7807932 1.19191471,18.9212111 1.53661407,19.0398806 C2.0064307,19.2016375 2.55106183,19.30429 2.99370576,19.3865757 C3.01509595,19.5505842 3.04646482,19.7267719 3.09932623,19.9043412 C3.31880597,20.641791 3.78197015,20.9720085 4.13188913,21.1191301 C4.46389765,21.2587804 4.80695949,21.2748998 5.03611087,21.2748998 C5.26024733,21.2748998 5.49717697,21.2573475 5.74802559,21.2387719 C6.01714286,21.2188145 6.29542004,21.1982431 6.56996162,21.1982431 C6.99541151,21.1982431 7.3121194,21.2490064 7.53814925,21.3533987 C7.84851173,21.4967846 8.17765458,21.6901151 8.52614072,21.8947548 C9.49627292,22.4645117 10.5958209,23.1103113 11.983113,23.1103113 C13.3704051,23.1103113 14.4699019,22.4645117 15.4400341,21.8947548 C15.7885203,21.690064 16.1176631,21.4967846 16.4280768,21.3533987 C16.6541066,21.2489552 16.9708145,21.1982431 17.3962644,21.1982431 C17.670806,21.1982431 17.9490832,21.2188657 18.2181493,21.2387719 C18.4689979,21.2573475 18.7059275,21.2748998 18.930064,21.2748998 C19.1592154,21.2748998 19.502226,21.2587804 19.8342857,21.1191301 C20.1842047,20.9720085 20.6473689,20.641791 20.8668486,19.9043412 C20.91971,19.7267719 20.9511301,19.5505842 20.9724691,19.3865757 C21.415113,19.3042388 21.9597953,19.2016375 22.4295608,19.0398806 C22.7743113,18.9212111 23.050081,18.7807932 23.2727335,18.6105928 C23.7198806,18.2688102 23.9661748,17.7940299 23.9661748,17.2737569 C23.9661748,17.0021322 23.8795394,16.3273177 23.0768955,15.9290405 C22.8754797,15.8291002 22.6639318,15.7616034 22.4190192,15.6834627 C21.4960171,15.3890149 20.1253561,14.9517441 19.3820213,12.6701578 L20.5045458,12.2170235 C21.4482729,11.8668998 21.9929041,10.8711812 21.7740384,9.88492964 C21.682081,9.47058422 21.445919,9.09850746 21.1091514,8.83721962 C20.7863539,8.58683156 20.3839829,8.44892111 19.9760853,8.44892111 C19.8347974,8.44892111 19.6933561,8.46529638 19.5557015,8.49753518 L19.1807591,8.58544989 C19.1619275,8.147258 19.1521535,7.68962047 19.1515906,7.21801279 C19.1504136,6.25678465 18.9570832,5.31981237 18.5769211,4.43298934 C18.2120085,3.58168017 17.692145,2.81516418 17.0318124,2.15467804 C16.3715309,1.49424307 15.6053731,0.974481876 14.7547292,0.609876333 C13.8686738,0.230123667 12.9327249,0.0374072495 11.9728785,0.0370490405 L11.9728785,0.0370490405 L11.9728785,0.0370490405 Z"></path>
            </g>
        </g>
    </g>
</svg>

<?xml version="1.0" encoding="utf-8"?>
<!-- Generator: Adobe Illustrator 22.1.0, SVG Export Plug-In . SVG Version: 6.00 Build 0)  -->
<svg version="1.1" id="Ebene_1" xmlns="http://www.w3.org/2000/svg" xmlns:xlink="http://www.w3.org/1999/xlink" x="0px" y="0px"
	 viewBox="0 0 26 25" style="enable-background:new 0 0 26 25;" xml:space="preserve">
<style type="text/css">
	.st0{fill:#767676;stroke:#767676;stroke-width:0.5;}
</style>
<title>socialmedia_snapchat</title>
<desc>Created with Sketch.</desc>
<g id="Icons">
	<g id="socialmedia_snapchat" transform="translate(-11.000000, -11.000000)">
		<g id="Shape" transform="translate(12.000000, 12.000000)">
			<path class="st0" d="M12,1.3c3.2,0,5.9,2.7,5.9,5.9c0,0.8,0,1.5,0.1,2.1c0,0.4,0.4,0.7,0.7,0.7c0.1,0,0.1,0,0.2,0l1-0.2
				c0,0,0.1,0,0.1,0c0.3,0,0.5,0.2,0.5,0.4c0.1,0.4-0.1,0.7-0.5,0.9l-1.5,0.6c-0.4,0.2-0.6,0.6-0.5,1c1.2,4.5,4.7,4.1,4.7,4.7
				c0,0.7-2.6,0.8-2.8,1.1c-0.2,0.2,0,1.4-0.5,1.6c-0.1,0-0.2,0.1-0.4,0.1c-0.4,0-0.9-0.1-1.5-0.1c-0.5,0-1,0.1-1.5,0.3
				c-1.2,0.6-2.4,1.6-3.9,1.6s-2.7-1.1-3.9-1.6c-0.5-0.2-1-0.3-1.5-0.3C6,19.9,5.4,20,5,20c-0.2,0-0.3,0-0.4-0.1
				c-0.5-0.2-0.3-1.4-0.5-1.6c-0.2-0.2-2.8-0.3-2.8-1.1c0-0.6,3.4-0.1,4.7-4.7c0.1-0.4-0.1-0.8-0.5-1L3.9,11
				c-0.4-0.1-0.6-0.5-0.5-0.9C3.5,9.9,3.7,9.7,4,9.7c0,0,0.1,0,0.1,0l1,0.2c0.1,0,0.1,0,0.2,0C5.7,10,6,9.7,6,9.3
				c0-0.6,0.1-1.3,0.1-2.1C6.1,4,8.8,1.3,12,1.3L12,1.3z M12,0L12,0L12,0c-1,0-1.9,0.2-2.8,0.6C8.3,1,7.6,1.5,6.9,2.2
				C6.3,2.8,5.7,3.6,5.4,4.4C5,5.3,4.8,6.3,4.8,7.2c0,0.5,0,0.9,0,1.4L4.4,8.5c-0.1,0-0.3,0-0.4,0c-0.4,0-0.8,0.1-1.1,0.4
				c-0.3,0.3-0.6,0.6-0.7,1c-0.2,1,0.3,2,1.3,2.3l1.1,0.5c-0.7,2.3-2.1,2.7-3,3c-0.2,0.1-0.5,0.1-0.7,0.2C0.1,16.3,0,17,0,17.3
				c0,0.5,0.2,1,0.7,1.3c0.2,0.2,0.5,0.3,0.8,0.4c0.5,0.2,1,0.3,1.5,0.3c0,0.2,0.1,0.3,0.1,0.5c0.2,0.7,0.7,1.1,1,1.2
				c0.3,0.1,0.7,0.2,0.9,0.2c0.2,0,0.5,0,0.7,0c0.3,0,0.5,0,0.8,0c0.4,0,0.7,0.1,1,0.2c0.3,0.1,0.6,0.3,1,0.5c1,0.6,2.1,1.2,3.5,1.2
				s2.5-0.6,3.5-1.2c0.3-0.2,0.7-0.4,1-0.5c0.2-0.1,0.5-0.2,1-0.2c0.3,0,0.6,0,0.8,0c0.3,0,0.5,0,0.7,0c0.2,0,0.6,0,0.9-0.2
				c0.3-0.1,0.8-0.5,1-1.2c0.1-0.2,0.1-0.4,0.1-0.5c0.4-0.1,1-0.2,1.5-0.3c0.3-0.1,0.6-0.3,0.8-0.4c0.4-0.3,0.7-0.8,0.7-1.3
				c0-0.3-0.1-0.9-0.9-1.3c-0.2-0.1-0.4-0.2-0.7-0.2c-0.9-0.3-2.3-0.7-3-3l1.1-0.5c0.9-0.4,1.5-1.3,1.3-2.3c-0.1-0.4-0.3-0.8-0.7-1
				c-0.3-0.3-0.7-0.4-1.1-0.4c-0.1,0-0.3,0-0.4,0l-0.4,0.1c0-0.4,0-0.9,0-1.4c0-1-0.2-1.9-0.6-2.8c-0.4-0.9-0.9-1.6-1.5-2.3
				c-0.7-0.7-1.4-1.2-2.3-1.5C13.9,0.2,12.9,0,12,0L12,0L12,0z"/>
		</g>
	</g>
</g>
</svg>
